X:74
T:Cascade
C:David Grier
N:Transcribed by Greg Rohrer
R:bluegrass
L:1/8
Q:1/4=150
M:4/4
K:D
z2 E2 F2 G2 | {G}"D"A4 {E}F2 {E}F2 | D4 FE D2 | "G"ED {A,}B,6 | z4 [dD]c B2 | 
"D"A4 {E}F2 {E}F2 | D4 FE D2 | "G"B,4 zC DB, | "A"A,6 FG | "D"A4 {E}F2 {E}F2 | 
D4 FE D2 | "G"ED {A,}B,6 | z6 (3DEF | G4 zG F2 | "A"E4 B,C EC | "D"D4 {=F}^FD FA | 
d4 F2 G2 | A2 {^G}A2 {E}F2 {E}F2 | D4 FE D2 | "G"ED {A,}B,6 | z4 [dD]c B2 | "D"A4 {E}F2 {E}F2 | 
D4 FE D2 | "G"B,4 B,C DB, | "A"A,4 F2 G2 | "D"A4 {E}F2 B2 | z2 A2 {E}F4 | "G"ED B,6 | 
z8 | GA B2 AG F2 | "A"E4 CD E2 | "D"{C}D8 | z4 FG A2 | "Bm"[B8D8] | "A"[A6D6] G2 | 
"D"F8 | {=F}"F#"^F4 z=F ED | "Bm"DB,4B AF | "E"E4 zF AB | "G"A8 | "A"A2 E2 F2 G2 | 
"D"A4 {E}F2 {E}F2 | DE D3E F2 | "G"ED B,6 | z8 | G4 zG F2 | "A"E4 CD E2 | "D"D4 EF AF | 
d8 | z4 AB d{=f}^f | b2 a2 (3=fed eB | d2 BA (3=FED EB, | D2 [D2B,2] [D4A,4] | [f8A8D8A,8] | 

